packages/foundations/assets/icons/functional/images/audio & video/skip_backward_28.svg

<svg width="28" height="28" viewBox="0 0 28 28" fill="none" xmlns="http://www.w3.org/2000/svg">
<g clip-path="url(#clip0_2202_550)">
<path fill-rule="evenodd" clip-rule="evenodd" d="M20.152 6.125C21.082 6.125 21.875 6.918 21.875 7.875V20.125C21.875 21.082 21.109 21.875 20.152 21.875C19.797 21.875 19.442 21.765 19.141 21.575L10.363 15.422C10.1342 15.2623 9.94748 15.0495 9.81894 14.8019C9.6904 14.5542 9.62387 14.279 9.62504 14C9.62504 13.426 9.89804 12.906 10.363 12.578L19.141 6.426C19.441 6.234 19.797 6.125 20.152 6.125ZM20.125 7.875L11.375 14L20.098 20.125L20.125 7.875ZM7.87504 20.125V7.875C7.87652 7.75968 7.85489 7.64524 7.81145 7.53841C7.768 7.43158 7.7036 7.33454 7.62205 7.25299C7.5405 7.17144 7.44346 7.10704 7.33663 7.0636C7.2298 7.02015 7.11536 6.99852 7.00004 7C6.88472 6.99852 6.77028 7.02015 6.66345 7.0636C6.55662 7.10704 6.45958 7.17144 6.37803 7.25299C6.29648 7.33454 6.23209 7.43158 6.18864 7.53841C6.14519 7.64524 6.12356 7.75968 6.12504 7.875V20.125C6.12504 20.617 6.50804 21 7.00004 21C7.11536 21.0015 7.2298 20.9799 7.33663 20.9364C7.44346 20.893 7.5405 20.8286 7.62205 20.747C7.7036 20.6655 7.768 20.5684 7.81145 20.4616C7.85489 20.3548 7.87652 20.2403 7.87504 20.125Z" fill="#1A1C1F"/>
</g>
<defs>
<clipPath id="clip0_2202_550">
<rect width="28" height="28" fill="white"/>
</clipPath>
</defs>
</svg>

<svg xmlns="http://www.w3.org/2000/svg" width="28" height="28" fill="none"><g clip-path="url(#a)"><path fill="#1A1C1F" fill-rule="evenodd" d="M20.152 6.125c.93 0 1.723.793 1.723 1.75v12.25c0 .957-.766 1.75-1.723 1.75-.355 0-.71-.11-1.011-.3l-8.778-6.153A1.73 1.73 0 0 1 9.625 14c0-.574.273-1.094.738-1.422l8.778-6.152c.3-.192.656-.301 1.011-.301m-.027 1.75L11.375 14l8.723 6.125zm-12.25 12.25V7.875A.864.864 0 0 0 7 7a.864.864 0 0 0-.875.875v12.25c0 .492.383.875.875.875a.863.863 0 0 0 .875-.875" clip-rule="evenodd"/></g><defs><clipPath id="a"><path fill="#fff" d="M0 0h28v28H0z"/></clipPath></defs></svg>
